X:1
T:Title
%%score ( 1 2 ) 3
L:1/8
Q:1/4=90
M:6/8
K:A
V:1 treble nm="Grand Piano, Soprano"
V:2 treble 
V:3 bass nm="Choir Pad, Jesus Is Coming Again"
V:1
 E/A/[Ec][DB] [CA][CA][DG] | [EA][FB][FA] [DF] [CE]2 | [CE][EA][EA] [EA][EA][DG] | %3
w: By~James~Henry~Painter * * * * * *|||
 [CA] [EB]2- [EB]2- [EB]/ z/ | E/A/[Ec][DB] [CA][CA][DG] | [EA][FB][FA] [DF] [CE]2 | %6
w: |||
 [CE][EA][EA] [EA][Ec][Ec] | [DB] [CA]2- [CA]2- [CA]/ z/ | EAA [CA][CA][DG] | %9
w: |||
 [EA]B-[EB-] [EB-][E-B]>E | EBB [EB][EB][EA] | [EB]c-[Ec-] [Ec-][E-c]>E | %12
w: |||
 E/A/[Ec][DB] [CA][CA][DG] | [EA][FB][FA] [DF] [CE]2 | [CE][EA][EA] [EA][Ec][Ec] | %15
w: |||
 [DB] [CA]2- [CA]3- | [CA]3 z3 |] %17
w: ||
V:2
 .C3 z3 | x6 | x6 | x6 | x6 | x6 | x6 | x6 | x6 | z .E2 z3 | x6 | z .E2 z3 | x6 | x6 | x6 | x6 | %16
 x6 |] %17
V:3
 [A,,A,][A,,A,][A,,A,] [A,,A,][A,,A,][B,,E,] | [C,A,][D,A,][D,A,] [D,A,] [A,,A,]2 | %2
 [A,,A,][C,A,][C,A,] [C,A,][C,A,][B,,E,] | [A,,A,] [E,G,]2- [E,G,]2- [E,G,]/ z/ | %4
 E,[A,,A,][A,,A,] [A,,A,][A,,A,][B,,E,] | [C,A,][D,A,][D,A,] [D,A,] [A,,A,]2 | %6
 [A,,A,][C,A,][C,A,] [C,A,][E,A,][E,A,] | [E,G,] [A,,A,]2- [A,,A,]2- [A,,A,]/ z/ | %8
 z3 [A,,E,][A,,E,][B,,E,] | [C,A,][E,G,][E,G,] [E,G,] [E,G,]2 | z3 [E,G,][E,G,][C,A,] | %11
 [E,G,]A,A, A, A,2 | E,[A,,A,][A,,A,] [A,,A,][A,,A,][B,,E,] | [C,A,][D,A,][D,A,] [D,A,] [A,,A,]2 | %14
 [A,,A,][C,A,][C,A,] [C,A,][E,A,][E,A,] | [E,G,] [A,,A,]2- [A,,A,]3- | [A,,A,]3 z3 |] %17

